X: 5106
T: Bridge Of Dee
R: strathspey
M: 4/4
K: Dmajor
|D|F<AA>F G>FE>D|G<BA>G F>A d2|F<AA>F G>FE>F|G>A,F>A, E/E/E G:|
B|A<d de/f/ g>Af>A|g>Af>A (3efd (3cBA|F<dd>f g>fg>b|(3agf (3gfe f<d d2|
A<d de/f/ g>Af>A|g>Af>A (3efd (3cBA|(3a^ga (3cde (3=gfg (3Bcd|(3efe (3dcB (3ABA (3GFE||

